packages/foundations/assets/icons/functional/images/audio & video/fast_forward_10_16.svg

<svg width="16" height="16" viewBox="0 0 16 16" fill="none" xmlns="http://www.w3.org/2000/svg">
<g clip-path="url(#clip0_184_286)">
<path fill-rule="evenodd" clip-rule="evenodd" d="M3.23701 12.38C3.75201 12.38 4.06501 11.943 4.06501 11.615C4.06501 11.24 3.47101 10.335 3.47101 9.319C3.47101 7.164 5.11101 5.54 7.11001 5.353L6.56301 5.868C6.43801 6.024 6.32901 6.228 6.32901 6.43C6.32901 6.836 6.70401 7.196 7.12501 7.196C7.33811 7.19837 7.54384 7.11809 7.69901 6.972L9.44101 5.216C9.58305 5.06223 9.65979 4.85928 9.65501 4.65C9.65537 4.55388 9.63624 4.45868 9.59877 4.37017C9.5613 4.28165 9.50627 4.20165 9.43701 4.135L7.67101 2.355C7.60067 2.28088 7.516 2.22182 7.42214 2.18142C7.32828 2.14103 7.22719 2.12013 7.12501 2.12C6.91422 2.12105 6.71237 2.20525 6.56331 2.35431C6.41426 2.50336 6.33006 2.70521 6.32901 2.916C6.32901 3.119 6.40701 3.306 6.56301 3.463L6.92301 3.823C5.55412 3.94915 4.28201 4.58308 3.35704 5.60003C2.43206 6.61699 1.92121 7.94332 1.92501 9.318C1.92501 10.428 2.34701 12.38 3.23701 12.38ZM6.65701 13.88H8.20301C8.30464 13.8794 8.40513 13.8586 8.4987 13.8189C8.59226 13.7792 8.67705 13.7214 8.74817 13.6488C8.81928 13.5762 8.87532 13.4903 8.91305 13.3959C8.95079 13.3015 8.96946 13.2006 8.96801 13.099C8.96748 12.8922 8.88517 12.694 8.73903 12.5477C8.59289 12.4014 8.39481 12.3188 8.18801 12.318V9.24C8.18931 9.10104 8.15233 8.9644 8.08113 8.84506C8.00993 8.72572 7.90726 8.62828 7.78435 8.56342C7.66145 8.49856 7.52307 8.46878 7.38436 8.47735C7.24566 8.48592 7.11199 8.53251 6.99801 8.612L6.19101 9.15C6.08497 9.21909 5.99782 9.31351 5.93741 9.42472C5.877 9.53593 5.84525 9.66044 5.84501 9.787C5.84492 9.89218 5.86611 9.99629 5.90729 10.0931C5.94847 10.1899 6.00881 10.2773 6.08466 10.3502C6.16051 10.423 6.25032 10.4798 6.34868 10.5171C6.44704 10.5543 6.55192 10.5713 6.65701 10.567V12.317C6.22001 12.317 5.89201 12.676 5.89201 13.113C5.89201 13.519 6.22001 13.88 6.65701 13.88ZM11.92 8.398C13.2 8.398 14.075 9.304 14.075 10.694V11.568C14.075 12.974 13.169 13.88 11.842 13.88C10.639 13.88 9.76501 12.958 9.76501 11.6V10.631C9.76501 9.304 10.671 8.398 11.92 8.398ZM11.905 9.956C11.561 9.965 11.326 10.053 11.326 10.616V11.599C11.326 12.146 11.498 12.313 11.92 12.305C12.295 12.298 12.498 12.115 12.498 11.553V10.678C12.498 10.022 12.186 9.949 11.905 9.956Z" fill="#1A1C1F"/>
</g>
<defs>
<clipPath id="clip0_184_286">
<rect width="16" height="16" fill="white"/>
</clipPath>
</defs>
</svg>

<svg xmlns="http://www.w3.org/2000/svg" width="16" height="16" fill="none"><g clip-path="url(#a)"><path fill="#1A1C1F" fill-rule="evenodd" d="M3.237 12.38c.515 0 .828-.437.828-.765 0-.375-.594-1.28-.594-2.296 0-2.155 1.64-3.779 3.639-3.966l-.547.515c-.125.156-.234.36-.234.562 0 .406.375.766.796.766a.82.82 0 0 0 .574-.224l1.742-1.756a.81.81 0 0 0 .158-.846.7.7 0 0 0-.162-.235l-1.766-1.78a.75.75 0 0 0-.546-.235.8.8 0 0 0-.796.796c0 .203.078.39.234.547l.36.36a5.503 5.503 0 0 0-4.998 5.495c0 1.11.422 3.062 1.312 3.062m3.42 1.5h1.546a.77.77 0 0 0 .765-.781.783.783 0 0 0-.78-.781V9.24a.757.757 0 0 0-1.19-.628l-.807.538a.76.76 0 0 0-.284.943.78.78 0 0 0 .75.474v1.75c-.437 0-.765.359-.765.796 0 .406.328.767.765.767m5.263-5.482c1.28 0 2.155.906 2.155 2.296v.874c0 1.406-.906 2.312-2.233 2.312-1.203 0-2.077-.922-2.077-2.28v-.969c0-1.327.906-2.233 2.155-2.233m-.015 1.558c-.344.009-.579.097-.579.66v.983c0 .547.172.714.594.706.375-.007.578-.19.578-.752v-.875c0-.656-.312-.729-.593-.722" clip-rule="evenodd"/></g><defs><clipPath id="a"><path fill="#fff" d="M0 0h16v16H0z"/></clipPath></defs></svg>
